svgs/thin/display-arrow-down.svg

<svg xmlns="http://www.w3.org/2000/svg" viewBox="0 0 576 512"><!--! Font Awesome Pro 6.6.0 by @fontawesome - https://fontawesome.com License - https://fontawesome.com/license (Commercial License) Copyright 2024 Fonticons, Inc. --><path d="M64 0L248 0l0 16L64 16C37.5 16 16 37.5 16 64l0 288c0 26.5 21.5 48 48 48l167.8 0 .3 0 111.7 0 .3 0L512 400c26.5 0 48-21.5 48-48l0-288c0-26.5-21.5-48-48-48L328 16l0-16L512 0c35.3 0 64 28.7 64 64l0 288c0 35.3-28.7 64-64 64l-158.6 0 13.3 80 73.2 0c4.4 0 8 3.6 8 8s-3.6 8-8 8l-80 0-144 0-80 0c-4.4 0-8-3.6-8-8s3.6-8 8-8l73.2 0 13.3-80L64 416c-35.3 0-64-28.7-64-64L0 64C0 28.7 28.7 0 64 0zM80 64l168 0 0 16L80 80l0 256 416 0 0-256L328 80l0-16 168 0c8.8 0 16 7.2 16 16l0 256c0 8.8-7.2 16-16 16L80 352c-8.8 0-16-7.2-16-16L64 80c0-8.8 7.2-16 16-16zM225.4 496l125.1 0-13.3-80-98.4 0-13.3 80zM296 8l0 236.7 74.3-74.3c3.1-3.1 8.2-3.1 11.3 0s3.1 8.2 0 11.3l-88 88c-3.1 3.1-8.2 3.1-11.3 0l-88-88c-3.1-3.1-3.1-8.2 0-11.3s8.2-3.1 11.3 0L280 244.7 280 8c0-4.4 3.6-8 8-8s8 3.6 8 8z"/></svg>

<svg xmlns="http://www.w3.org/2000/svg" viewBox="0 0 576 512"><!--! Font Awesome Pro 6.4.2 by @fontawesome - https://fontawesome.com License - https://fontawesome.com/license (Commercial License) Copyright 2023 Fonticons, Inc. --><path d="M64 0H248V16H64C37.5 16 16 37.5 16 64V352c0 26.5 21.5 48 48 48H231.8h.3H343.9h.3H512c26.5 0 48-21.5 48-48V64c0-26.5-21.5-48-48-48H328V0H512c35.3 0 64 28.7 64 64V352c0 35.3-28.7 64-64 64H353.4l13.3 80H440c4.4 0 8 3.6 8 8s-3.6 8-8 8H360 216 136c-4.4 0-8-3.6-8-8s3.6-8 8-8h73.2l13.3-80H64c-35.3 0-64-28.7-64-64V64C0 28.7 28.7 0 64 0zM80 64H248V80H80l0 256H496V80H328V64H496c8.8 0 16 7.2 16 16V336c0 8.8-7.2 16-16 16H80c-8.8 0-16-7.2-16-16V80c0-8.8 7.2-16 16-16zM225.4 496H350.6l-13.3-80H238.8l-13.3 80zM296 8V244.7l74.3-74.3c3.1-3.1 8.2-3.1 11.3 0s3.1 8.2 0 11.3l-88 88c-3.1 3.1-8.2 3.1-11.3 0l-88-88c-3.1-3.1-3.1-8.2 0-11.3s8.2-3.1 11.3 0L280 244.7V8c0-4.4 3.6-8 8-8s8 3.6 8 8z"/></svg>
